icons/speakerphone.svg

<svg width="24" height="24" viewBox="0 0 24 24" fill="none" xmlns="http://www.w3.org/2000/svg">
<path fill-rule="evenodd" clip-rule="evenodd" d="M18.4719 3.11833C18.797 3.29235 19 3.63121 19 4V7.12602C20.7252 7.57006 22 9.13616 22 11C22 12.8638 20.7252 14.4299 19 14.874V19C19 19.388 18.7755 19.741 18.4242 19.9056C18.0728 20.0702 17.6579 20.0166 17.3598 19.7682L11.638 15H11V20C11 20.5523 10.5523 21 10 21H7C6.44772 21 6 20.5523 6 20V15H3C2.44772 15 2 14.5523 2 14V8C2 7.44772 2.44772 7 3 7H11.6972L17.4453 3.16795C17.7522 2.96338 18.1467 2.94431 18.4719 3.11833ZM8 15V19H9V15H8ZM11 13H12C12.2339 13 12.4605 13.082 12.6402 13.2318L17 16.865V5.86852L12.5547 8.83205C12.3904 8.94156 12.1974 9 12 9H11V13ZM9 9V13H4V9H9ZM19 12.7324C19.5978 12.3866 20 11.7403 20 11C20 10.2597 19.5978 9.61338 19 9.26757V12.7324Z" fill="black"/>
</svg>

<svg
  width="24"
  height="24"
  viewBox="0 0 24 24"
  xmlns="http://www.w3.org/2000/svg"
>
  <path
    fill-rule="evenodd"
    clip-rule="evenodd"
    d="M18.472 3.118A1 1 0 0 1 19 4v3.126a4.002 4.002 0 0 1 0 7.748V19a1 1 0 0 1-1.64.768L11.638 15H11v5a1 1 0 0 1-1 1H7a1 1 0 0 1-1-1v-5H3a1 1 0 0 1-1-1V8a1 1 0 0 1 1-1h8.697l5.748-3.832a1 1 0 0 1 1.027-.05zM8 15v4h1v-4H8zm3-2h1a1 1 0 0 1 .64.232L17 16.865V5.869l-4.445 2.963A1 1 0 0 1 12 9h-1v4zM9 9v4H4V9h5zm10 3.732a2 2 0 0 0 0-3.464v3.464z"
  />
</svg>
